;FLAVOR:Marlin
;TIME:7933
;Filament used: 4.71451m
;Layer height: 0.175
;MINX:1.835
;MINY:3.988
;MINZ:0.263
;MAXX:118.165
;MAXY:76.568
;MAXZ:2.888
;Generated with Cura_SteamEngine 4.5.0
M140 S60
M105
M190 S60
M104 S200
M105
M109 S200
M82 ;absolute extrusion mode
G21;(metric values)
G90;(absolute positioning)
M82;(set extruder to absolute mode)
M107;(start with the fan off)
G28;(Home the printer)
G92 E0;(Reset the extruder to 0)
G0 Z5 E5 F500;(Move up and prime the nozzle)
G0 X-1 Z0;(Move outside the printable area)
G1 Y60 E8 F500;(Draw a priming/wiping line to the rear)
G1 X-1;(Move a little closer to the print area)
G1 Y10 E16 F500;(draw more priming/wiping)
G1 E15 F250;(Small retract)
G92 E0;(Zero the extruder)
G92 E0
G92 E0
G1 F2400 E-2.5
;LAYER_COUNT:16
;LAYER:0
M107
;MESH:front_panel.STL
G0 F4320 X35.424 Y41.831 Z0.263
;TYPE:WALL-INNER
G1 F2400 E0
G1 F1800 X32.741 Y43.38 E0.11856
G1 X30.061 Y41.832 E0.23701
G1 X30.056 Y40.348 E0.2938
G1 X30.06 Y38.725 E0.35591
G1 X32.74 Y37.176 E0.47437
G1 X35.416 Y38.722 E0.59265
G1 X35.423 Y41.137 E0.68507
G0 F1620 X35.424 Y41.831
G0 F4320 X35.75 Y42.018
;TYPE:WALL-OUTER
G1 F1800 X32.74 Y43.755 E0.81807
G1 X29.737 Y42.02 E0.95079
G1 X29.731 Y40.347 E1.01482
G1 X29.736 Y38.537 E1.08409
G1 X32.74 Y36.801 E1.21687
G1 X35.74 Y38.534 E1.34946
G1 X35.749 Y41.324 E1.45623
G0 F1620 X35.75 Y42.018
G0 F4320 X35.577 Y42.117
G0 X35.084 Y41.635
;TYPE:SKIN
G1 F1800 X32.743 Y42.986 E1.55967
G1 X30.401 Y41.634 E1.66316
G1 X30.396 Y40.348 E1.71237
G1 X30.4 Y38.923 E1.76691
G1 X32.74 Y37.57 E1.87035
G1 X35.076 Y38.92 E1.97361
G1 X35.082 Y40.941 E2.05095
G0 F1620 X35.084 Y41.635
G0 F4320 X35.339 Y41.635
G0 X35.333 Y39.375
G0 X34.92 Y39.375
G1 F1800 X34.06 Y38.515 E2.09749
G1 X33.998 Y38.453
G0 F4320 X34.194 Y38.115
G0 X33.093 Y37.479
G0 X32.886 Y37.835
G1 F1800 X34.922 Y39.872 E2.20771
G0 F4320 X34.924 Y40.368
G1 F1800 X32.464 Y37.909 E2.34083
G0 F4320 X32.151 Y38.091
G1 F1800 X34.925 Y40.865 E2.49096
G0 F4320 X34.927 Y41.362
G1 F1800 X31.837 Y38.272 E2.6582
G0 F4320 X31.524 Y38.453
G1 F1800 X34.728 Y41.657 E2.8316
G0 F4320 X34.414 Y41.838
G1 F1800 X31.21 Y38.635 E3.00498
G0 F4320 X30.897 Y38.817
G1 F1800 X34.1 Y42.019 E3.17831
G0 F4320 X33.786 Y42.201
G1 F1800 X30.583 Y38.998 E3.35166
G0 F4320 X30.554 Y39.464
G1 F1800 X33.473 Y42.382 E3.50962
G0 F4320 X33.159 Y42.563
G1 F1800 X30.553 Y39.957 E3.65066
G0 F4320 X30.552 Y40.452
G1 F1800 X32.845 Y42.744 E3.77473
G1 X32.907 Y42.806
G0 F4320 X33.072 Y43.092
G0 X31.745 Y42.706
G0 X31.953 Y42.347
G1 F1800 X30.555 Y40.949 E3.85039
G0 F4320 X30.557 Y41.447
G1 F1800 X30.782 Y41.671 E3.86254
G1 F2400 E1.36254
G0 F4320 X30.573 Y42.029
G0 X32.742 Y43.207
G0 X35.273 Y41.744
G0 X35.57 Y40.437
G0 X36.614 Y40.436
G0 X47.554 Y40.437
G0 X48.614 Y40.437
G0 X48.744 Y40.397
;TYPE:WALL-INNER
G1 F2400 E3.86254
G1 F1800 X48.744 Y40.346 E3.8645
G1 X53.064 Y40.346 E4.02982
G1 X53.064 Y40.397 E4.03177
G1 X48.744 Y40.397 E4.05586
G1 F2400 E1.55586
G0 F4320 X49.783 Y40.216
G0 X49.783 Y38.205
G0 X49.783 Y36.631
G1 F2400 E4.05586
G1 F1800 X49.783 Y38.075 E4.11113
G1 X48.744 Y38.075 E4.15089
G1 X48.744 Y35.824 E4.23703
G1 X53.064 Y35.824 E4.40236
G1 X53.064 Y37.901 E4.48185
G1 X53.064 Y38.076 E4.48854
G1 X52.889 Y38.076 E4.49288
G1 X52.058 Y38.073 E4.52468
G1 X52.056 Y37.18 E4.55886
G1 X52.039 Y36.631 E4.57988
G1 X50.056 Y36.631 E4.65577
G0 F1620 X49.783 Y36.631
G1 F2400 E2.15577
G0 F4320 X49.626 Y37.918
G0 X48.622 Y38.197
G0 X47.554 Y38.225
G0 X47.554 Y42.516
G0 X48.622 Y42.544
G0 X49.624 Y42.826
G0 X49.918 Y43.989
G0 X52.053 Y44.111
G1 F2400 E4.65577
G1 F1800 X52.058 Y42.671 E4.71087
G1 X52.888 Y42.665 E4.74264
G1 X52.889 Y42.664 E4.74269
G1 X53.064 Y42.664 E4.74939
G1 X53.064 Y42.839 E4.75373
G1 X53.064 Y42.84 E4.75376
G1 X53.064 Y44.99 E4.83604
G1 X48.744 Y44.99 E5.00137
G1 X48.744 Y42.842 E5.08357
G1 X48.744 Y42.667 E5.09027
G1 X48.919 Y42.667 E5.09461
G1 X49.781 Y42.67 E5.12759
G1 X49.783 Y43.562 E5.16173
G1 X49.8 Y44.111 E5.18275
G1 X51.78 Y44.111 E5.25853
G0 F1620 X52.053 Y44.111
G0 F4320 X49.918 Y43.989
G0 X49.624 Y42.826
G0 X48.725 Y42.616
G0 X48.726 Y42.342
;TYPE:WALL-OUTER
G1 F1800 X48.747 Y42.342 E5.25933
G1 X50.105 Y42.346 E5.3113
G1 X50.108 Y43.557 E5.35765
G1 X50.115 Y43.786 E5.36641
G1 X51.729 Y43.786 E5.42818
G1 X51.734 Y42.347 E5.48325
G1 X52.886 Y42.344 E5.52734
G1 X53.075 Y42.338 E5.53458
G1 X53.113 Y42.337 E5.53603
G1 X53.113 Y40.722 E5.59784
G1 X48.726 Y40.722 E5.76573
G1 X48.726 Y41.648 E5.80116
G0 F1620 X48.726 Y42.342
G0 F4320 X48.747 Y42.342
G0 X48.926 Y42.342
G0 X48.925 Y42.616
G0 X48.664 Y45.07
G0 X48.419 Y45.315
G1 F1800 X48.419 Y42.363 E5.91414
G1 X48.419 Y42.342 E5.91491
G1 X48.419 Y40.722 E5.96929
G1 X48.419 Y40.021 E5.99611
G1 X48.419 Y38.4 E6.05815
G1 X48.419 Y35.499 E6.16917
G1 X53.389 Y35.499 E6.35937
G1 X53.389 Y38.364 E6.46902
G1 X53.389 Y38.401 E6.47043
G1 X53.389 Y40.021 E6.53243
G1 X53.389 Y40.722 E6.55926
G1 X53.389 Y42.337 E6.608
G1 X53.389 Y42.375 E6.60934
G1 X53.389 Y45.315 E6.72185
G1 X48.786 Y45.315 E6.89801
G0 F1620 X48.419 Y45.315
G0 F4320 X48.419 Y45.115
G1 F2400 E4.39801
G0 F4320 X48.694 Y45.04
G0 X48.71 Y42.536
G0 X47.554 Y42.536
G0 X47.554 Y38.205
G0 X48.71 Y38.205
G0 X48.725 Y38.4
G1 F2400 E6.89801
G1 F1800 X48.725 Y40.021 E6.95225
G1 X53.113 Y40.021 E7.12018
G1 X53.113 Y38.401 E7.16907
G1 X53.076 Y38.401 E7.17038
G1 X51.734 Y38.397 E7.22173
G1 X51.731 Y37.185 E7.26812
G1 X51.724 Y36.956 E7.27689
G1 X50.108 Y36.956 E7.33873
G1 X50.108 Y38.4 E7.39399
G1 X49.16 Y38.4 E7.43027
G0 F1620 X48.725 Y38.4
G0 F4320 X48.725 Y38.6
G0 X49.084 Y37.735
;TYPE:SKIN
G1 F1800 X49.084 Y36.164 E7.49039
G1 X52.724 Y36.164 E7.6297
G1 X52.724 Y37.735 E7.68982
G1 X52.398 Y37.734 E7.70229
G1 X52.396 Y37.174 E7.72373
G1 X52.369 Y36.291 E7.75753
G1 X49.443 Y36.291 E7.86951
G1 X49.443 Y37.4 E7.91195
G0 F1620 X49.443 Y37.735
G0 X49.084 Y37.735
G1 F2400 E5.41195
G0 F4320 X48.829 Y37.735
G0 X47.554 Y38.205
G0 X47.554 Y42.537
G0 X49.071 Y42.537
G0 X49.084 Y43.008
G1 F2400 E7.91195
G1 F1800 X49.441 Y43.009 E7.92562
G1 X49.443 Y43.568 E7.94701
G1 X49.47 Y44.451 E7.98082
G1 X52.391 Y44.451 E8.0926
G1 X52.396 Y43.009 E8.14779
G1 X52.724 Y43.006 E8.16034
G1 X52.724 Y44.65 E8.22326
G1 X49.084 Y44.65 E8.36256
G1 X49.084 Y43.702 E8.39884
G0 F1620 X49.084 Y43.008
G0 F4320 X49.24 Y43.795
G1 F1800 X49.293 Y43.849 E8.40174
G0 F4320 X49.24 Y44.29
G1 F1800 X49.308 Y44.358 E8.40542
G0 F4320 X49.702 Y44.212
G1 F2400 E5.90542
G0 F4320 X49.719 Y44.196
G0 X49.624 Y42.826
G0 X48.901 Y42.825
G0 X48.608 Y45.126
G0 X47.554 Y45.126
G0 X16.819 Y59.613
G0 X15.858 Y60.054
G0 X14.37 Y60.062
;TYPE:WALL-INNER
G1 F2400 E8.40542
G1 F1800 X14.881 Y59.975 E8.42525
G1 X15.291 Y59.964 E8.44095
G1 X15.61 Y60.03 E8.45342
G1 X15.723 Y60.099 E8.45848
G1 X15.746 Y60.125 E8.45981
G1 X15.79 Y60.221 E8.46385
G1 X15.803 Y60.395 E8.47053
G1 X15.77 Y60.487 E8.47427
G1 X15.654 Y60.623 E8.48111
G1 X15.353 Y60.818 E8.49484
G1 X14.792 Y61.034 E8.51784
G1 X14.53 Y61.101 E8.52819
G1 X14.361 Y61.143 E8.53486
G1 X14.319 Y60.974 E8.53917
G1 X14.129 Y60.21 E8.56929
G1 X14.107 Y60.121 E8.5728
G1 X14.28 Y60.077 E8.57963
G1 X14.37 Y60.062 E8.58249
G0 F4320 X14.303 Y61.239
G0 X14.083 Y61.368
;TYPE:WALL-OUTER
G1 F1800 X13.714 Y59.885 E8.64098
G1 X14.21 Y59.76 E8.66055
G1 X14.853 Y59.651 E8.68551
G1 X15.318 Y59.638 E8.70332
G1 X15.731 Y59.724 E8.71946
G1 X15.934 Y59.846 E8.72852
G1 X16.022 Y59.948 E8.73368
G1 X16.11 Y60.14 E8.74176
G1 X16.132 Y60.439 E8.75324
G1 X16.056 Y60.652 E8.76189
G1 X15.87 Y60.871 E8.77289
G1 X15.504 Y61.108 E8.78957
G1 X14.891 Y61.344 E8.81471
G1 X14.294 Y61.495 E8.83828
G1 X14.125 Y61.537 E8.84494
G1 X14.083 Y61.368 E8.84925
G0 F4320 X14.035 Y61.174
G0 X14.608 Y60.729
;TYPE:SKIN
G1 F1800 X14.522 Y60.381 E8.86297
G1 X14.918 Y60.315 E8.87833
G1 X15.266 Y60.305 E8.89166
G1 X15.447 Y60.343 E8.89874
G1 X15.428 Y60.364 E8.89982
G1 X15.197 Y60.514 E8.91036
G1 X14.739 Y60.691 E8.92915
G0 F1620 X14.696 Y60.707
G0 X14.608 Y60.729
G1 F2400 E6.42915
G0 F4320 X14.361 Y60.79
G0 X14.909 Y62.92
G0 X15.069 Y63.027
;TYPE:WALL-INNER
G1 F2400 E8.92915
G1 F1800 X15.373 Y62.976 E8.94095
G1 X15.567 Y62.971 E8.94837
G1 X15.89 Y63.011 E8.96083
G1 X15.988 Y63.063 E8.96508
G1 X16.011 Y63.075 E8.96607
G1 X16.05 Y63.123 E8.96844
G1 X16.087 Y63.241 E8.97317
G1 X16.08 Y63.366 E8.97796
G1 X16.067 Y63.388 E8.97894
G1 X16.017 Y63.474 E8.98274
G1 X15.857 Y63.607 E8.99071
G1 X15.484 Y63.782 E9.00647
G1 X15.224 Y63.856 E9.01682
G1 X15.051 Y63.905 E9.0237
G1 X15.008 Y63.731 E9.02809
G1 X14.876 Y63.207 E9.04877
G1 X14.842 Y63.071 E9.05413
G1 X14.93 Y63.049 E9.05761
G1 X15.069 Y63.027 E9.06151
G0 F4320 X15.009 Y63.969
G0 X15.083 Y64.234
;TYPE:WALL-OUTER
G1 F1800 X15.009 Y64.255 E9.06446
G1 X14.813 Y64.286 E9.07205
G1 X14.794 Y64.212 E9.07497
G1 X14.638 Y63.604 E9.099
G1 X14.463 Y62.895 E9.12694
G1 X14.458 Y62.832 E9.12936
G1 X14.871 Y62.729 E9.14565
G1 X15.34 Y62.652 E9.16384
G1 X15.585 Y62.645 E9.17322
G1 X15.988 Y62.695 E9.18876
G1 X16.222 Y62.818 E9.19888
G1 X16.342 Y62.969 E9.20626
G1 X16.415 Y63.199 E9.21549
G1 X16.399 Y63.463 E9.22562
G1 X16.27 Y63.687 E9.23551
G1 X16.034 Y63.883 E9.24725
G1 X15.594 Y64.089 E9.26584
G1 X15.493 Y64.118 E9.26986
G0 F1620 X15.083 Y64.234
G0 F4320 X15.009 Y64.255
G0 X14.887 Y64.274
G0 X15.296 Y63.482
;TYPE:SKIN
G1 F1800 X15.26 Y63.34 E9.27547
G1 X15.408 Y63.316 E9.28121
G1 X15.547 Y63.311 E9.28653
G1 X15.659 Y63.325 E9.29085
G1 X15.37 Y63.461 E9.30307
G1 X15.352 Y63.466 E9.30379
G0 F1620 X15.296 Y63.482
G1 F2400 E6.80379
G0 F4320 X15.364 Y63.727
G0 X16.168 Y63.061
G0 X16.994 Y62.401
G0 X47.543 Y42.195
G0 X47.608 Y45.872
G0 X54.2 Y34.932
G0 X54.264 Y37.75
G0 X84.477 Y17.769
G0 X85.531 Y17.769
G0 X87.029 Y17.508
;TYPE:WALL-INNER
G1 F2400 E9.30379
G1 F1800 X88.266 Y17.508 E9.35113
G1 X88.266 Y17.635 E9.35599
G1 X87.029 Y17.635 E9.37317
G1 X86.9 Y17.634 E9.3781
G1 X85.667 Y17.633 E9.42529
G1 X85.667 Y17.509 E9.43004
G1 X86.9 Y17.502 E9.44729
G1 X86.903 Y16.272 E9.49437
G1 X87.029 Y16.271 E9.49919
G1 X87.029 Y17.508 E9.51652
G0 F4320 X87.354 Y17.183
;TYPE:WALL-OUTER
G1 F1800 X88.591 Y17.183 E9.56386
G1 X88.591 Y17.785 E9.5869
G1 X88.591 Y17.96 E9.59359
G1 X88.416 Y17.96 E9.59793
G1 X85.342 Y17.958 E9.71557
G1 X85.342 Y17.186 E9.74511
G1 X86.576 Y17.179 E9.79234
G1 X86.579 Y15.955 E9.83918
G1 X86.955 Y15.946 E9.85358
G1 X87.179 Y15.945 E9.86215
G1 X87.354 Y15.945 E9.86885
G1 X87.354 Y16.12 E9.87318
G1 X87.354 Y17.183 E9.91386
G0 F4320 X87.554 Y17.183
G0 X87.554 Y17.435
G1 F2400 E7.41386
G0 F4320 X87.554 Y17.458
G0 X88.402 Y17.771
G0 X89.456 Y17.771
G0 X103.267 Y19.388
G0 X104.321 Y19.388
G0 X106.276 Y19.5
;TYPE:WALL-INNER
G1 F2400 E9.91386
G1 F1800 X106.256 Y18.126 E9.96645
G1 X106.228 Y17.585 E9.98718
G1 X104.455 Y17.56 E10.05504
G1 X104.451 Y16.399 E10.09947
G1 X104.451 Y16.311 E10.10284
G1 X104.627 Y16.306 E10.10958
G1 X104.715 Y16.307 E10.11295
G1 X105.328 Y16.319 E10.13641
G1 X105.908 Y16.411 E10.15888
G1 X106.351 Y16.603 E10.17736
G1 X106.51 Y16.708 E10.18465
G1 X106.852 Y17.074 E10.20382
G1 X107.025 Y17.418 E10.21856
G1 X107.147 Y17.909 E10.23792
G1 X107.173 Y18.445 E10.25846
G1 X107.153 Y18.947 E10.27768
G1 X107.088 Y19.289 E10.29101
G1 X106.905 Y19.758 E10.31027
G1 X106.726 Y20.028 E10.32267
G1 X106.491 Y20.272 E10.33564
G1 X106.227 Y20.462 E10.34808
G1 X105.912 Y20.615 E10.36149
G1 X105.472 Y20.731 E10.3789
G1 X105.045 Y20.765 E10.39529
G1 X104.457 Y20.763 E10.4178
G1 X104.457 Y19.523 E10.46525
G1 X105.582 Y19.515 E10.5083
G0 F1620 X105.671 Y19.515
G0 X106.276 Y19.5
G0 F4320 X105.946 Y19.183
;TYPE:WALL-OUTER
G1 F1800 X105.946 Y19.148 E10.50964
G1 X105.931 Y18.137 E10.54834
G1 X105.919 Y17.906 E10.55719
G1 X104.131 Y17.881 E10.62563
G1 X104.125 Y15.996 E10.69776
G1 X104.623 Y15.981 E10.71683
G1 X105.356 Y15.994 E10.74489
G1 X105.998 Y16.096 E10.76977
G1 X106.509 Y16.317 E10.79107
G1 X106.72 Y16.458 E10.80078
G1 X107.123 Y16.888 E10.82334
G1 X107.33 Y17.301 E10.84102
G1 X107.471 Y17.864 E10.86323
G1 X107.499 Y18.445 E10.88549
G1 X107.477 Y18.98 E10.90598
G1 X107.401 Y19.382 E10.92164
G1 X107.196 Y19.907 E10.94321
G1 X106.979 Y20.235 E10.95826
G1 X106.708 Y20.515 E10.97317
G1 X106.391 Y20.744 E10.98814
G1 X106.027 Y20.92 E11.00361
G1 X105.526 Y21.053 E11.02345
G1 X105.058 Y21.09 E11.04141
G1 X104.132 Y21.087 E11.07685
G1 X104.132 Y19.2 E11.14907
G1 X105.252 Y19.192 E11.19193
G0 F1620 X105.631 Y19.19
G0 X105.666 Y19.19
G0 X105.946 Y19.183
G0 F4320 X105.946 Y19.148
G0 X105.944 Y18.983
G0 X106.76 Y19.193
;TYPE:SKIN
G1 F1800 X106.617 Y19.56 E11.207
G1 X106.596 Y18.114 E11.26235
G1 X106.551 Y17.251 E11.29542
G1 X106.572 Y17.273 E11.29658
G1 X106.703 Y17.534 E11.30776
G1 X106.809 Y17.957 E11.32445
G1 X106.833 Y18.445 E11.34315
G1 X106.815 Y18.88 E11.35981
G0 F1620 X106.814 Y18.909
G0 X106.76 Y19.193
G0 F4320 X107.009 Y19.241
G0 X106.612 Y19.937
G0 X105.444 Y20.587
G0 X104.614 Y20.607
G0 X104.614 Y19.679
G0 X105.673 Y19.601
G0 X105.677 Y19.855
G1 F1800 X106.44 Y19.836 E11.38902
G1 X106.269 Y20.014 E11.39846
G1 X106.049 Y20.172 E11.40883
G1 X105.799 Y20.293 E11.41946
G1 X105.408 Y20.396 E11.43493
G1 X105.043 Y20.425 E11.44894
G1 X104.797 Y20.424 E11.45836
G1 X104.797 Y19.861 E11.47991
G1 X105.437 Y19.856 E11.5044
G0 F1620 X105.677 Y19.855
G0 F4320 X105.673 Y19.601
G0 X106.377 Y17.43
G0 X104.611 Y17.406
G0 X104.609 Y16.463
G0 X105.313 Y16.465
G0 X106.176 Y16.703
G0 X106.55 Y17.249
G1 F1800 X104.794 Y17.224 E11.57161
G1 X104.792 Y16.649 E11.59361
G1 X105.297 Y16.659 E11.61294
G1 X105.812 Y16.74 E11.63289
G1 X106.19 Y16.904 E11.64866
G1 X106.288 Y16.969 E11.65316
G1 X106.424 Y17.114 E11.66077
G0 F1620 X106.55 Y17.249
G0 F4320 X105.679 Y17.078
G1 F1800 X105.442 Y16.841 E11.6736
G0 F4320 X105.177 Y17.071
G1 F1800 X104.949 Y16.843 E11.68594
G0 F4320 X104.537 Y16.843
G0 X106.112 Y17.705
G0 X106.151 Y19.381
G0 X105.149 Y19.603
G0 X105.151 Y20.016
G1 F1800 X105.376 Y20.24 E11.69809
G0 F4320 X105.643 Y20.012
G1 F1800 X105.764 Y20.134 E11.70466
G1 F2400 E9.20466
G0 F4320 X105.942 Y20.506
G0 X105.044 Y20.619
G0 X104.327 Y19.513
G0 X102.041 Y19.521
G0 X100.802 Y19.513
;TYPE:WALL-INNER
G1 F2400 E11.70466
G1 F1800 X101.804 Y19.513 E11.74301
G1 X101.819 Y23.376 E11.89085
G1 X103.778 Y23.375 E11.96582
G1 X105.35 Y23.356 E12.02598
G1 X106.203 Y23.254 E12.05886
G1 X106.777 Y23.107 E12.08154
G1 X107.456 Y22.831 E12.10959
G1 X108.029 Y22.488 E12.13514
G1 X108.49 Y22.11 E12.15796
G1 X108.887 Y21.662 E12.18087
G1 X109.293 Y20.983 E12.21114
G1 X109.587 Y20.173 E12.24412
G1 X109.747 Y19.407 E12.27407
G1 X109.791 Y18.528 E12.30775
G1 X109.76 Y17.654 E12.34122
G1 X109.617 Y16.875 E12.37153
G1 X109.399 Y16.212 E12.39824
G1 X109.106 Y15.632 E12.42311
G1 X108.741 Y15.128 E12.44692
G1 X108.303 Y14.694 E12.47052
G1 X107.808 Y14.344 E12.49372
G1 X107.218 Y14.053 E12.5189
G1 X106.412 Y13.809 E12.55112
G1 X105.625 Y13.721 E12.58143
G1 X103.935 Y13.709 E12.64611
G1 X102.952 Y13.711 E12.68373
G1 X101.803 Y13.716 E12.7277
G1 X101.803 Y17.565 E12.875
G1 X101.309 Y17.565 E12.89391
G1 X100.802 Y17.689 E12.91388
G1 X100.802 Y18.819 E12.95713
G0 F1620 X100.802 Y19.513
G1 F2400 E10.45713
G0 F4320 X101.009 Y17.852
G0 X101.646 Y17.408
G0 X102.013 Y13.924
G0 X102.952 Y13.546
G0 X102.981 Y14.889
G0 X113.71 Y7.4
G0 X112.437 Y6.975
G0 X111.248 Y7.003
G0 X110.005 Y6.659
G0 X108.974 Y7.464
G0 X103.28 Y7.338
G0 X103.07 Y9.108
G1 F2400 E12.95713
G1 F1800 X103.07 Y9.155 E12.95893
G1 X103.045 Y9.108 E12.95916
G1 X103.07 Y9.088 E12.96006
G1 X103.07 Y9.108
G0 F4320 X102.833 Y9.948
G0 X102.042 Y10.453
G0 X100.714 Y10.413
G0 X100.036 Y9.891
