;FLAVOR:Marlin
;TIME:6275
;Filament used: 3.7089m
;Layer height: 0.175
;MINX:4.835
;MINY:3.002
;MINZ:0.263
;MAXX:115.165
;MAXY:63.582
;MAXZ:8.663
;Generated with Cura_SteamEngine 4.5.0
M140 S60
M105
M190 S60
M104 S200
M105
M109 S200
M82 ;absolute extrusion mode
G21;(metric values)
G90;(absolute positioning)
M82;(set extruder to absolute mode)
M107;(start with the fan off)
G28;(Home the printer)
G92 E0;(Reset the extruder to 0)
G0 Z5 E5 F500;(Move up and prime the nozzle)
G0 X-1 Z0;(Move outside the printable area)
G1 Y60 E8 F500;(Draw a priming/wiping line to the rear)
G1 X-1;(Move a little closer to the print area)
G1 Y10 E16 F500;(draw more priming/wiping)
G1 E15 F250;(Small retract)
G92 E0;(Zero the extruder)
G92 E0
G92 E0
G1 F2400 E-2.5
;LAYER_COUNT:49
;LAYER:0
M107
;MESH:ledStand.STL
G0 F4320 X12.803 Y9.153 Z0.263
;TYPE:WALL-INNER
G1 F2400 E0
G1 F1800 X12.426 Y9.489 E0.01933
G1 X12.109 Y9.881 E0.03862
G1 X11.864 Y10.324 E0.05799
G1 X11.698 Y10.8 E0.07729
G1 X11.614 Y11.296 E0.09654
G1 X11.615 Y11.801 E0.11586
G1 X11.702 Y12.3 E0.13525
G1 X11.87 Y12.774 E0.15449
G1 X12.118 Y13.216 E0.17389
G1 X12.436 Y13.606 E0.19315
G1 X12.816 Y13.94 E0.21251
G1 X13.247 Y14.203 E0.23183
G1 X13.716 Y14.39 E0.25116
G1 X14.209 Y14.495 E0.27045
G1 X14.714 Y14.516 E0.28979
G1 X15.215 Y14.45 E0.30913
G1 X15.696 Y14.301 E0.3284
G1 X16.148 Y14.072 E0.34779
G1 X16.552 Y13.771 E0.36707
G1 X16.899 Y13.406 E0.38634
G1 X17.182 Y12.988 E0.40566
G1 X17.389 Y12.526 E0.42504
G1 X17.516 Y12.039 E0.4443
G1 X17.557 Y11.541 E0.46342
G1 X17.512 Y11.031 E0.48301
G1 X17.383 Y10.544 E0.50229
G1 X17.175 Y10.084 E0.52161
G1 X16.891 Y9.667 E0.54092
G1 X16.541 Y9.303 E0.56025
G1 X16.134 Y9.004 E0.57957
G1 X15.682 Y8.778 E0.59891
G1 X15.201 Y8.631 E0.61816
G1 X14.699 Y8.567 E0.63753
G1 X14.194 Y8.591 E0.65688
G1 X13.702 Y8.698 E0.67615
G1 X13.409 Y8.817 E0.68825
G0 F1620 X13.234 Y8.888
G0 X12.803 Y9.153
G1 F2400 E-1.81175
G0 F4320 X13.735 Y8.804
G0 X14.694 Y8.678
G0 X15.64 Y8.881
G0 X17.32 Y10.002
G0 X16.135 Y10.667
G0 X31.114 Y10.809
G0 X29.872 Y10.256
G0 X30.963 Y9.153
G1 F2400 E0.68825
G1 F1800 X30.586 Y9.489 E0.70758
G1 X30.269 Y9.881 E0.72687
G1 X30.024 Y10.324 E0.74624
G1 X29.858 Y10.8 E0.76554
G1 X29.774 Y11.296 E0.78479
G1 X29.775 Y11.801 E0.80411
G1 X29.862 Y12.3 E0.8235
G1 X30.03 Y12.774 E0.84274
G1 X30.278 Y13.216 E0.86214
G1 X30.596 Y13.606 E0.8814
G1 X30.976 Y13.94 E0.90076
G1 X31.407 Y14.203 E0.92008
G1 X31.876 Y14.39 E0.93941
G1 X32.369 Y14.495 E0.9587
G1 X32.874 Y14.516 E0.97804
G1 X33.374 Y14.45 E0.99734
G1 X33.857 Y14.301 E1.01668
G1 X34.308 Y14.072 E1.03604
G1 X34.712 Y13.771 E1.05532
G1 X35.059 Y13.406 E1.07459
G1 X35.342 Y12.988 E1.09391
G1 X35.549 Y12.526 E1.11329
G1 X35.676 Y12.039 E1.13255
G1 X35.717 Y11.541 E1.15167
G1 X35.672 Y11.031 E1.17126
G1 X35.543 Y10.544 E1.19054
G1 X35.335 Y10.084 E1.20986
G1 X35.051 Y9.667 E1.22917
G1 X34.701 Y9.303 E1.2485
G1 X34.294 Y9.004 E1.26783
G1 X33.843 Y8.778 E1.28713
G1 X33.36 Y8.631 E1.30645
G1 X32.859 Y8.567 E1.32578
G1 X32.354 Y8.591 E1.34513
G1 X31.862 Y8.698 E1.3644
G1 X31.569 Y8.817 E1.3765
G0 F1620 X31.394 Y8.888
G0 X30.963 Y9.153
G1 F2400 E-1.1235
G0 F4320 X31.895 Y8.804
G0 X32.854 Y8.678
G0 X33.801 Y8.881
G0 X35.48 Y10.002
G0 X34.295 Y10.667
G0 X49.274 Y10.809
G0 X48.032 Y10.256
G0 X49.123 Y9.153
G1 F2400 E1.3765
G1 F1800 X48.746 Y9.489 E1.39583
G1 X48.429 Y9.881 E1.41512
G1 X48.184 Y10.324 E1.43449
G1 X48.018 Y10.8 E1.45379
G1 X47.934 Y11.296 E1.47304
G1 X47.935 Y11.801 E1.49237
G1 X48.022 Y12.3 E1.51175
G1 X48.19 Y12.774 E1.531
G1 X48.438 Y13.216 E1.55039
G1 X48.756 Y13.606 E1.56965
G1 X49.136 Y13.94 E1.58901
G1 X49.567 Y14.203 E1.60833
G1 X50.036 Y14.39 E1.62766
G1 X50.529 Y14.495 E1.64695
G1 X51.034 Y14.516 E1.66629
G1 X51.534 Y14.45 E1.68559
G1 X52.017 Y14.301 E1.70493
G1 X52.468 Y14.072 E1.72429
G1 X52.872 Y13.771 E1.74357
G1 X53.219 Y13.406 E1.76285
G1 X53.502 Y12.988 E1.78216
G1 X53.709 Y12.526 E1.80154
G1 X53.836 Y12.039 E1.8208
G1 X53.877 Y11.541 E1.83992
G1 X53.832 Y11.031 E1.85952
G1 X53.703 Y10.544 E1.8788
G1 X53.495 Y10.084 E1.89812
G1 X53.211 Y9.667 E1.91742
G1 X52.861 Y9.303 E1.93675
G1 X52.454 Y9.004 E1.95608
G1 X52.003 Y8.778 E1.97538
G1 X51.52 Y8.631 E1.9947
G1 X51.019 Y8.567 E2.01403
G1 X50.514 Y8.591 E2.03338
G1 X50.022 Y8.698 E2.05265
G1 X49.729 Y8.817 E2.06475
G0 F1620 X49.554 Y8.888
G0 X49.123 Y9.153
G1 F2400 E-0.43525
G0 F4320 X50.055 Y8.804
G0 X51.014 Y8.678
G0 X51.961 Y8.881
G0 X53.64 Y10.002
G0 X52.455 Y10.667
G0 X67.434 Y10.809
G0 X66.192 Y10.256
G0 X67.283 Y9.153
G1 F2400 E2.06475
G1 F1800 X66.906 Y9.489 E2.08408
G1 X66.589 Y9.881 E2.10337
G1 X66.344 Y10.324 E2.12275
G1 X66.178 Y10.8 E2.14204
G1 X66.094 Y11.296 E2.16129
G1 X66.095 Y11.801 E2.18062
G1 X66.182 Y12.3 E2.2
G1 X66.35 Y12.774 E2.21925
G1 X66.598 Y13.216 E2.23864
G1 X66.916 Y13.606 E2.2579
G1 X67.296 Y13.94 E2.27726
G1 X67.727 Y14.203 E2.29659
G1 X68.196 Y14.39 E2.31591
G1 X68.689 Y14.495 E2.3352
G1 X69.194 Y14.516 E2.35454
G1 X69.694 Y14.45 E2.37384
G1 X70.177 Y14.301 E2.39319
G1 X70.628 Y14.072 E2.41254
G1 X71.032 Y13.771 E2.43182
G1 X71.379 Y13.406 E2.4511
G1 X71.662 Y12.988 E2.47042
G1 X71.869 Y12.526 E2.48979
G1 X71.996 Y12.039 E2.50905
G1 X72.037 Y11.541 E2.52817
G1 X71.992 Y11.031 E2.54777
G1 X71.863 Y10.544 E2.56705
G1 X71.655 Y10.084 E2.58637
G1 X71.371 Y9.667 E2.60568
G1 X71.021 Y9.303 E2.625
G1 X70.614 Y9.004 E2.64433
G1 X70.163 Y8.778 E2.66363
G1 X69.68 Y8.631 E2.68296
G1 X69.179 Y8.567 E2.70228
G1 X68.674 Y8.591 E2.72163
G1 X68.182 Y8.698 E2.7409
G1 X67.889 Y8.817 E2.753
G0 F1620 X67.714 Y8.888
G0 X67.283 Y9.153
G1 F2400 E0.253
G0 F4320 X68.215 Y8.804
G0 X69.174 Y8.678
G0 X70.121 Y8.881
G0 X71.8 Y10.002
G0 X70.615 Y10.667
G0 X85.594 Y10.809
G0 X84.352 Y10.256
G0 X85.443 Y9.153
G1 F2400 E2.753
G1 F1800 X85.066 Y9.489 E2.77233
G1 X84.749 Y9.881 E2.79162
G1 X84.504 Y10.324 E2.811
G1 X84.338 Y10.8 E2.83029
G1 X84.254 Y11.296 E2.84954
G1 X84.255 Y11.801 E2.86887
G1 X84.342 Y12.3 E2.88825
G1 X84.51 Y12.774 E2.9075
G1 X84.758 Y13.216 E2.9269
G1 X85.076 Y13.606 E2.94615
G1 X85.456 Y13.94 E2.96551
G1 X85.887 Y14.203 E2.98484
G1 X86.356 Y14.39 E3.00416
G1 X86.849 Y14.495 E3.02345
G1 X87.354 Y14.516 E3.04279
G1 X87.855 Y14.45 E3.06213
G1 X88.336 Y14.301 E3.0814
G1 X88.788 Y14.072 E3.10079
G1 X89.192 Y13.771 E3.12007
G1 X89.539 Y13.406 E3.13935
G1 X89.822 Y12.988 E3.15867
G1 X90.029 Y12.526 E3.17804
G1 X90.156 Y12.039 E3.1973
G1 X90.197 Y11.541 E3.21642
G1 X90.152 Y11.031 E3.23602
G1 X90.023 Y10.544 E3.2553
G1 X89.815 Y10.084 E3.27462
G1 X89.531 Y9.667 E3.29393
G1 X89.181 Y9.303 E3.31325
G1 X88.774 Y9.004 E3.33258
G1 X88.322 Y8.778 E3.35192
G1 X87.841 Y8.631 E3.37117
G1 X87.339 Y8.567 E3.39053
G1 X86.834 Y8.591 E3.40988
G1 X86.342 Y8.698 E3.42915
G1 X86.049 Y8.817 E3.44125
G0 F1620 X85.874 Y8.888
G0 X85.443 Y9.153
G1 F2400 E0.94125
G0 F4320 X86.375 Y8.804
G0 X87.334 Y8.678
G0 X88.28 Y8.881
G0 X89.96 Y10.002
G0 X88.775 Y10.667
G0 X103.754 Y10.809
G0 X102.512 Y10.256
G0 X103.603 Y9.153
G1 F2400 E3.44125
G1 F1800 X103.226 Y9.489 E3.46058
G1 X102.909 Y9.881 E3.47987
G1 X102.664 Y10.324 E3.49925
G1 X102.498 Y10.8 E3.51854
G1 X102.414 Y11.296 E3.53779
G1 X102.415 Y11.801 E3.55712
G1 X102.502 Y12.3 E3.5765
G1 X102.67 Y12.774 E3.59575
G1 X102.918 Y13.216 E3.61514
G1 X103.236 Y13.606 E3.6344
G1 X103.616 Y13.94 E3.65376
G1 X104.047 Y14.203 E3.67309
G1 X104.516 Y14.39 E3.69241
G1 X105.009 Y14.495 E3.7117
G1 X105.514 Y14.516 E3.73104
G1 X106.014 Y14.45 E3.75034
G1 X106.497 Y14.301 E3.76969
G1 X106.948 Y14.072 E3.78905
G1 X107.352 Y13.771 E3.80833
G1 X107.699 Y13.406 E3.8276
G1 X107.982 Y12.988 E3.84692
G1 X108.189 Y12.526 E3.86629
G1 X108.316 Y12.039 E3.88555
G1 X108.357 Y11.541 E3.90468
G1 X108.312 Y11.031 E3.92427
G1 X108.183 Y10.544 E3.94355
G1 X107.975 Y10.084 E3.96287
G1 X107.691 Y9.667 E3.98218
G1 X107.341 Y9.303 E4.0015
G1 X106.934 Y9.004 E4.02083
G1 X106.483 Y8.778 E4.04014
G1 X106 Y8.631 E4.05946
G1 X105.499 Y8.567 E4.07879
G1 X104.994 Y8.591 E4.09813
G1 X104.502 Y8.698 E4.1174
G1 X104.209 Y8.817 E4.12951
G0 F1620 X104.034 Y8.888
G0 X103.603 Y9.153
G1 F2400 E1.62951
G0 F4320 X104.357 Y8.871
G0 X106.035 Y8.468
G0 X105.75 Y9.798
G0 X106.035 Y3.002
G0 X106.035 Y4.377
G0 X113.151 Y4.347
G1 F2400 E4.12951
G1 F1800 X113.538 Y4.627 E4.14779
G1 X113.682 Y4.793 E4.1562
G1 X113.898 Y5.214 E4.1743
G1 X113.951 Y5.423 E4.18256
G1 X113.975 Y6.764 E4.23388
G1 X113.975 Y60.876 E6.30475
G1 X113.898 Y61.376 E6.32411
G1 X113.819 Y61.57 E6.33212
G1 X113.54 Y61.956 E6.35035
G1 X113.377 Y62.098 E6.35862
G1 X112.954 Y62.315 E6.37682
G1 X112.743 Y62.369 E6.38515
G1 X111.43 Y62.392 E6.43541
G1 X7.541 Y62.392 E10.41124
G1 X7.041 Y62.315 E10.4306
G1 X6.847 Y62.236 E10.43861
G1 X6.461 Y61.957 E10.45684
G1 X6.319 Y61.794 E10.46511
G1 X6.101 Y61.37 E10.48336
G1 X6.048 Y61.159 E10.49168
G1 X6.025 Y60.239 E10.5269
G1 X6.025 Y5.708 E12.6138
G1 X6.102 Y5.207 E12.6332
G1 X6.181 Y5.014 E12.64118
G1 X6.46 Y4.628 E12.65941
G1 X6.623 Y4.486 E12.66768
G1 X7.047 Y4.269 E12.68591
G1 X7.256 Y4.216 E12.69416
G1 X8.789 Y4.192 E12.75284
G1 X112.459 Y4.192 E16.72028
G1 X112.477 Y4.195 E16.72098
G0 F1620 X112.959 Y4.269
G0 X113.151 Y4.347
G1 F2400 E14.22098
G0 F4320 X114.449 Y3.86
G0 X104.826 Y31.6
G0 X104.452 Y30.29
G0 X103.603 Y30.903
G1 F2400 E16.72098
G1 F1800 X103.226 Y31.239 E16.74031
G1 X102.909 Y31.631 E16.7596
G1 X102.664 Y32.074 E16.77897
G1 X102.498 Y32.55 E16.79827
G1 X102.414 Y33.046 E16.81752
G1 X102.415 Y33.551 E16.83684
G1 X102.502 Y34.05 E16.85623
G1 X102.67 Y34.524 E16.87547
G1 X102.918 Y34.966 E16.89487
G1 X103.236 Y35.356 E16.91413
G1 X103.616 Y35.69 E16.93349
G1 X104.047 Y35.953 E16.95281
G1 X104.516 Y36.14 E16.97214
G1 X105.009 Y36.245 E16.99143
G1 X105.514 Y36.266 E17.01077
G1 X106.014 Y36.2 E17.03007
G1 X106.497 Y36.051 E17.04941
G1 X106.948 Y35.822 E17.06877
G1 X107.352 Y35.521 E17.08805
G1 X107.699 Y35.156 E17.10732
G1 X107.982 Y34.738 E17.12664
G1 X108.189 Y34.276 E17.14602
G1 X108.316 Y33.789 E17.16528
G1 X108.357 Y33.291 E17.1844
G1 X108.312 Y32.781 E17.20399
G1 X108.183 Y32.294 E17.22327
G1 X107.975 Y31.834 E17.24259
G1 X107.691 Y31.417 E17.2619
G1 X107.341 Y31.053 E17.28123
G1 X106.934 Y30.754 E17.30056
G1 X106.483 Y30.528 E17.31986
G1 X106 Y30.381 E17.33918
G1 X105.499 Y30.317 E17.35851
G1 X104.994 Y30.341 E17.37786
G1 X104.502 Y30.448 E17.39713
G1 X104.209 Y30.567 E17.40923
G0 F1620 X104.034 Y30.638
G0 X103.603 Y30.903
G1 F2400 E14.90923
G0 F4320 X102.771 Y31.538
G0 X103.898 Y32.301
G0 X88.775 Y32.417
G0 X89.96 Y31.752
G0 X88.716 Y30.848
G0 X87.817 Y30.489
G0 X86.849 Y30.451
G0 X85.443 Y30.903
G1 F2400 E17.40923
G1 F1800 X85.066 Y31.239 E17.42856
G1 X84.749 Y31.631 E17.44785
G1 X84.504 Y32.074 E17.46722
G1 X84.338 Y32.55 E17.48652
G1 X84.254 Y33.046 E17.50577
G1 X84.255 Y33.551 E17.5251
G1 X84.342 Y34.05 E17.54448
G1 X84.51 Y34.524 E17.56373
G1 X84.758 Y34.966 E17.58312
G1 X85.076 Y35.356 E17.60238
G1 X85.456 Y35.69 E17.62174
G1 X85.887 Y35.953 E17.64106
G1 X86.356 Y36.14 E17.66039
G1 X86.849 Y36.245 E17.67968
G1 X87.354 Y36.266 E17.69902
G1 X87.855 Y36.2 E17.71836
G1 X88.336 Y36.051 E17.73763
G1 X88.788 Y35.822 E17.75702
G1 X89.192 Y35.521 E17.7763
G1 X89.539 Y35.156 E17.79558
G1 X89.822 Y34.738 E17.81489
G1 X90.029 Y34.276 E17.83427
G1 X90.156 Y33.789 E17.85353
G1 X90.197 Y33.291 E17.87265
G1 X90.152 Y32.781 E17.89224
G1 X90.023 Y32.294 E17.91153
G1 X89.815 Y31.834 E17.93085
G1 X89.531 Y31.417 E17.95015
G1 X89.181 Y31.053 E17.96948
G1 X88.774 Y30.754 E17.98881
G1 X88.322 Y30.528 E18.00815
G1 X87.841 Y30.381 E18.02739
G1 X87.339 Y30.317 E18.04676
G1 X86.834 Y30.341 E18.06611
G1 X86.342 Y30.448 E18.08538
G1 X86.049 Y30.567 E18.09748
G0 F1620 X85.874 Y30.638
G0 X85.443 Y30.903
G1 F2400 E15.59748
G0 F4320 X84.611 Y31.538
G0 X85.738 Y32.301
G0 X70.615 Y32.417
G0 X71.8 Y31.752
G0 X70.556 Y30.848
G0 X69.657 Y30.489
G0 X68.689 Y30.451
G0 X67.283 Y30.903
G1 F2400 E18.09748
G1 F1800 X66.906 Y31.239 E18.11681
G1 X66.589 Y31.631 E18.1361
G1 X66.344 Y32.074 E18.15547
G1 X66.178 Y32.55 E18.17477
G1 X66.094 Y33.046 E18.19402
G1 X66.095 Y33.551 E18.21334
G1 X66.182 Y34.05 E18.23273
G1 X66.35 Y34.524 E18.25198
G1 X66.598 Y34.966 E18.27137
G1 X66.916 Y35.356 E18.29063
G1 X67.296 Y35.69 E18.30999
G1 X67.727 Y35.953 E18.32931
G1 X68.196 Y36.14 E18.34864
G1 X68.689 Y36.245 E18.36793
G1 X69.194 Y36.266 E18.38727
G1 X69.694 Y36.2 E18.40657
G1 X70.177 Y36.051 E18.42591
G1 X70.628 Y35.822 E18.44527
G1 X71.032 Y35.521 E18.46455
G1 X71.379 Y35.156 E18.48383
G1 X71.662 Y34.738 E18.50314
G1 X71.869 Y34.276 E18.52252
G1 X71.996 Y33.789 E18.54178
G1 X72.037 Y33.291 E18.5609
G1 X71.992 Y32.781 E18.5805
G1 X71.863 Y32.294 E18.59978
G1 X71.655 Y31.834 E18.6191
G1 X71.371 Y31.417 E18.6384
G1 X71.021 Y31.053 E18.65773
G1 X70.614 Y30.754 E18.67706
G1 X70.163 Y30.528 E18.69636
G1 X69.68 Y30.381 E18.71568
G1 X69.179 Y30.317 E18.73501
G1 X68.674 Y30.341 E18.75436
G1 X68.182 Y30.448 E18.77363
G1 X67.889 Y30.567 E18.78573
G0 F1620 X67.714 Y30.638
G0 X67.283 Y30.903
G1 F2400 E16.28573
G0 F4320 X66.451 Y31.538
G0 X67.578 Y32.301
G0 X52.455 Y32.417
G0 X53.64 Y31.752
G0 X52.396 Y30.848
G0 X51.497 Y30.489
G0 X50.529 Y30.451
G0 X49.123 Y30.903
G1 F2400 E18.78573
G1 F1800 X48.746 Y31.239 E18.80506
G1 X48.429 Y31.631 E18.82435
G1 X48.184 Y32.074 E18.84373
G1 X48.018 Y32.55 E18.86302
G1 X47.934 Y33.046 E18.88227
G1 X47.935 Y33.551 E18.9016
G1 X48.022 Y34.05 E18.92098
G1 X48.19 Y34.524 E18.94023
G1 X48.438 Y34.966 E18.95962
G1 X48.756 Y35.356 E18.97888
G1 X49.136 Y35.69 E18.99824
G1 X49.567 Y35.953 E19.01757
G1 X50.036 Y36.14 E19.03689
G1 X50.529 Y36.245 E19.05618
G1 X51.034 Y36.266 E19.07552
G1 X51.534 Y36.2 E19.09482
G1 X52.017 Y36.051 E19.11417
G1 X52.468 Y35.822 E19.13352
G1 X52.872 Y35.521 E19.1528
G1 X53.219 Y35.156 E19.17208
G1 X53.502 Y34.738 E19.1914
G1 X53.709 Y34.276 E19.21077
G1 X53.836 Y33.789 E19.23003
G1 X53.877 Y33.291 E19.24915
G1 X53.832 Y32.781 E19.26875
G1 X53.703 Y32.294 E19.28803
G1 X53.495 Y31.834 E19.30735
G1 X53.211 Y31.417 E19.32666
G1 X52.861 Y31.053 E19.34598
G1 X52.454 Y30.754 E19.36531
G1 X52.003 Y30.528 E19.38461
G1 X51.52 Y30.381 E19.40394
G1 X51.019 Y30.317 E19.42326
G1 X50.514 Y30.341 E19.44261
G1 X50.022 Y30.448 E19.46188
G1 X49.729 Y30.567 E19.47398
G0 F1620 X49.554 Y30.638
G0 X49.123 Y30.903
G1 F2400 E16.97398
G0 F4320 X48.291 Y31.538
G0 X49.418 Y32.301
G0 X34.295 Y32.417
G0 X35.48 Y31.752
G0 X34.236 Y30.848
G0 X33.337 Y30.489
G0 X32.369 Y30.451
G0 X30.963 Y30.903
G1 F2400 E19.47398
G1 F1800 X30.586 Y31.239 E19.49331
G1 X30.269 Y31.631 E19.5126
G1 X30.024 Y32.074 E19.53198
G1 X29.858 Y32.55 E19.55127
G1 X29.774 Y33.046 E19.57052
G1 X29.775 Y33.551 E19.58985
G1 X29.862 Y34.05 E19.60923
G1 X30.03 Y34.524 E19.62848
G1 X30.278 Y34.966 E19.64787
G1 X30.596 Y35.356 E19.66713
G1 X30.976 Y35.69 E19.68649
G1 X31.407 Y35.953 E19.70582
G1 X31.876 Y36.14 E19.72514
G1 X32.369 Y36.245 E19.74443
G1 X32.874 Y36.266 E19.76377
G1 X33.374 Y36.2 E19.78307
G1 X33.857 Y36.051 E19.80242
G1 X34.308 Y35.822 E19.82178
G1 X34.712 Y35.521 E19.84106
G1 X35.059 Y35.156 E19.86033
G1 X35.342 Y34.738 E19.87965
G1 X35.549 Y34.276 E19.89902
G1 X35.676 Y33.789 E19.91828
G1 X35.717 Y33.291 E19.93741
G1 X35.672 Y32.781 E19.957
G1 X35.543 Y32.294 E19.97628
G1 X35.335 Y31.834 E19.9956
G1 X35.051 Y31.417 E20.01491
G1 X34.701 Y31.053 E20.03423
G1 X34.294 Y30.754 E20.05356
G1 X33.843 Y30.528 E20.07287
G1 X33.36 Y30.381 E20.09219
G1 X32.859 Y30.317 E20.11152
G1 X32.354 Y30.341 E20.13086
G1 X31.862 Y30.448 E20.15013
G1 X31.569 Y30.567 E20.16224
